src/next/cmd/bg/lc_strikeout.svg

<svg height="24" width="24" xmlns="http://www.w3.org/2000/svg" xmlns:xlink="http://www.w3.org/1999/xlink"><linearGradient id="a" gradientUnits="userSpaceOnUse" x1="11.180567" x2="11.180567" y1="15.998976" y2="8.285821"><stop offset="0" stop-color="#555"/><stop offset="1"/></linearGradient><g transform="matrix(.171875 0 0 .171875 1 1)"><path d="m4.8554688 8.0019531-.8457032 1.9980469h.5253906l.1308594-.3144531.1328125.3144531h1.1699219l-.875-1.9980469zm4.5566406.140625v.2265625c.4509229.0395546.7272366.127233.8300786.2617188.110752.1265748.166015.4391115.166015.9375v.4316406h1.210938v-1.0136719c0-.2689715.087678-.4042969.261718-.4042969h1.244141c.664518 0 1.108572.099102 1.330078.296875.206942.1712626.371848.5636702.507813 1.1210938h.328125l-.064454-1.8574219zm6.8359376 0v.2265625c.498388.0316437.810925.1097532.9375.2363282.134486.1186637.203125.3969302.203125.8320312v.5625h1.208984v-1.0625c0-.2373279.08768-.3554688.261719-.3554688h.521484c.68034 0 1.198696.1391332 1.554688.4160157.306115.2380892.472494.5765642.515625 1.0019531h1.21289c-.0839-1.2334331-1.10687-1.8574219-3.091796-1.8574219zm-13.5097658 4.8574219-.3515624.828125c-.3639027.862291-.6287924 1.399686-.7949219 1.613281-.1582186.205684-.3830769.31621-.67578128.332032v.224609h2.34960938v-.224609c-.5379431-.000001-.8066406-.161981-.8066406-.486329 0-.142396.0304626-.296761.09375-.46289l.546875-1.388672h3.109375l.4863281 1.138672c.1503077.34017.2246094.605059.2246094.794922 0 .150307-.0590705.253217-.1777344.308593-.118664.055377-.3359067.087793-.6523437.095704v.224609h3.0253906v-.224609c-.2689716-.015822-.465222-.082508-.5917969-.201172-.1265748-.118664-.2867002-.396931-.4765625-.832032l-.7617188-1.740234zm7.6699218 0v1.705078c0 .42719-.055263.699696-.166015.81836-.110753.118662-.3870667.202534-.8300786.25v.224609h3.1328126c.268971 0 .530053-.015231.783203-.046875.261061-.031644.537374-.09833.830078-.201172.292705-.102842.542363-.23436.748047-.392578.213595-.158219.390806-.375461.533203-.652344.142397-.284793.214844-.608753.214844-.972656 0-.221506-.0248-.431133-.072266-.628906-.007808-.033835-.024763-.069261-.035156-.103516h-1.287109c.062258.199478.099609.416981.099609.662109 0 1.265749-.779438 1.898438-2.337891 1.898438-.158218 0-.264936-.028608-.320312-.083985-.055377-.055375-.082031-.162093-.082031-.320312v-2.15625zm6.980469 0v1.705078c0 .443012-.068639.728894-.203125.855469s-.447023.197069-.9375.212891v.224609h3.964844c.545854 0 1.016563-.066686 1.412109-.201172.395546-.142397.690899-.323416.888672-.544922.205684-.229417.352433-.460036.439453-.689453s.130859-.461891.130859-.699219c0-.292704-.05907-.553786-.177734-.783203-.015119-.030239-.031467-.051608-.046875-.080078h-1.367187c.011575.020487.026023.035208.037109.056641.126574.221506.189453.494011.189453.818359 0 .34017-.062879.624099-.189453.853516-.118664.229417-.292067.404773-.521485.523437-.229415.110753-.475267.188863-.736328.236328-.261059.047466-.569789.072266-.925781.072266-.292704 0-.490908-.032416-.59375-.095703-.102842-.071199-.154297-.200763-.154297-.390625v-2.074219z" fill="url(#a)" transform="matrix(5.8181818 0 0 5.8181818 -5.818182 -5.818182)"/><path d="m54.892799 3.2812959v-2.79470843z" fill="#fff" fill-opacity=".756881"/><rect fill="#010101" height="5.81818" rx="1.78422" ry="1.14751" stroke-width=".707107" width="128" y="58.18182"/></g></svg>

<?xml version="1.0" encoding="UTF-8" standalone="no"?>
<svg
   xmlns:dc="http://purl.org/dc/elements/1.1/"
   xmlns:cc="http://creativecommons.org/ns#"
   xmlns:rdf="http://www.w3.org/1999/02/22-rdf-syntax-ns#"
   xmlns:svg="http://www.w3.org/2000/svg"
   xmlns="http://www.w3.org/2000/svg"
   xmlns:xlink="http://www.w3.org/1999/xlink"
   xmlns:sodipodi="http://sodipodi.sourceforge.net/DTD/sodipodi-0.dtd"
   xmlns:inkscape="http://www.inkscape.org/namespaces/inkscape"
   height="24"
   width="24"
   version="1.1"
   id="svg24"
   sodipodi:docname="lc_strikeout.svg"
   inkscape:export-filename="/home/rizmut/Dokumen/Rizmut/Github/libreoffice-style-karasa-jaga/build/next/cmd/bg/lc_strikeout.png"
   inkscape:export-xdpi="96"
   inkscape:export-ydpi="96"
   inkscape:version="0.92.3 (2405546, 2018-03-11)">
  <metadata
     id="metadata30">
    <rdf:RDF>
      <cc:Work
         rdf:about="">
        <dc:format>image/svg+xml</dc:format>
        <dc:type
           rdf:resource="http://purl.org/dc/dcmitype/StillImage" />
      </cc:Work>
    </rdf:RDF>
  </metadata>
  <defs
     id="defs28">
    <linearGradient
       id="linearGradient893"
       gradientUnits="userSpaceOnUse"
       x1="74.327759"
       x2="78.138741"
       y1="108.93148"
       y2="21.278833">
      <stop
         offset="0"
         stop-color="#555"
         id="stop2-3" />
      <stop
         offset="1"
         id="stop4-6" />
    </linearGradient>
    <linearGradient
       inkscape:collect="always"
       xlink:href="#a"
       id="linearGradient866"
       x1="3"
       y1="17"
       x2="3"
       y2="-9"
       gradientUnits="userSpaceOnUse" />
    <linearGradient
       inkscape:collect="always"
       xlink:href="#a"
       id="linearGradient838"
       gradientUnits="userSpaceOnUse"
       gradientTransform="matrix(0.29665981,0,0,0.29665981,10.290588,10.955759)"
       x1="3"
       y1="17"
       x2="3"
       y2="-9" />
  </defs>
  <sodipodi:namedview
     pagecolor="#ffffff"
     bordercolor="#666666"
     borderopacity="1"
     objecttolerance="10"
     gridtolerance="10"
     guidetolerance="10"
     inkscape:pageopacity="0"
     inkscape:pageshadow="2"
     inkscape:window-width="1366"
     inkscape:window-height="714"
     id="namedview26"
     showgrid="true"
     inkscape:zoom="19.666667"
     inkscape:cx="13.434742"
     inkscape:cy="7.5722808"
     inkscape:window-x="0"
     inkscape:window-y="28"
     inkscape:window-maximized="1"
     inkscape:current-layer="g22">
    <inkscape:grid
       type="xygrid"
       id="grid840" />
  </sodipodi:namedview>
  <linearGradient
     id="a"
     gradientUnits="userSpaceOnUse"
     x1="74.32776"
     x2="78.138741"
     y1="108.931477"
     y2="21.278833">
    <stop
       offset="0"
       stop-color="#555"
       id="stop2" />
    <stop
       offset="1"
       id="stop4" />
  </linearGradient>
  <linearGradient
     id="b"
     gradientUnits="userSpaceOnUse"
     x1="-96.822324"
     x2="101.524494"
     y1="-800.615054"
     y2="-638.331294">
    <stop
       offset="0"
       stop-color="#3b3e22"
       id="stop7" />
    <stop
       offset="1"
       stop-color="#454545"
       stop-opacity="0"
       id="stop9" />
  </linearGradient>
  <g
     transform="matrix(.171875 0 0 .171875 1 1)"
     id="g22">
    <path
       style="font-style:normal;font-variant:normal;font-weight:normal;font-stretch:normal;font-size:medium;line-height:1.25;font-family:FreeSerif;-inkscape-font-specification:FreeSerif;letter-spacing:0px;word-spacing:0px;fill:url(#linearGradient838);fill-opacity:1;stroke:none;stroke-width:0.2966598"
       d="M 4.8554688 8.0019531 L 4.0097656 10 L 4.5351562 10 L 4.6660156 9.6855469 L 4.7988281 10 L 5.96875 10 L 5.09375 8.0019531 L 4.8554688 8.0019531 z M 9.4121094 8.1425781 L 9.4121094 8.3691406 C 9.8630323 8.4086952 10.139346 8.4963736 10.242188 8.6308594 C 10.35294 8.7574342 10.408203 9.0699709 10.408203 9.5683594 L 10.408203 10 L 11.619141 10 L 11.619141 8.9863281 C 11.619141 8.7173566 11.706819 8.5820312 11.880859 8.5820312 L 13.125 8.5820312 C 13.789518 8.5820312 14.233572 8.6811332 14.455078 8.8789062 C 14.66202 9.0501688 14.826926 9.4425764 14.962891 10 L 15.291016 10 L 15.226562 8.1425781 L 9.4121094 8.1425781 z M 16.248047 8.1425781 L 16.248047 8.3691406 C 16.746435 8.4007843 17.058972 8.4788938 17.185547 8.6054688 C 17.320033 8.7241325 17.388672 9.002399 17.388672 9.4375 L 17.388672 10 L 18.597656 10 L 18.597656 8.9375 C 18.597656 8.7001721 18.685336 8.5820312 18.859375 8.5820312 L 19.380859 8.5820312 C 20.061199 8.5820312 20.579555 8.7211644 20.935547 8.9980469 C 21.241662 9.2361361 21.408041 9.5746111 21.451172 10 L 22.664062 10 C 22.580162 8.7665669 21.557192 8.1425781 19.572266 8.1425781 L 16.248047 8.1425781 z M 2.7382812 13 L 2.3867188 13.828125 C 2.0228161 14.690416 1.7579264 15.227811 1.5917969 15.441406 C 1.4335783 15.64709 1.20872 15.757616 0.91601562 15.773438 L 0.91601562 15.998047 L 3.265625 15.998047 L 3.265625 15.773438 C 2.7276819 15.773437 2.4589844 15.611457 2.4589844 15.287109 C 2.4589844 15.144713 2.489447 14.990348 2.5527344 14.824219 L 3.0996094 13.435547 L 6.2089844 13.435547 L 6.6953125 14.574219 C 6.8456202 14.914389 6.9199219 15.179278 6.9199219 15.369141 C 6.9199219 15.519448 6.8608514 15.622358 6.7421875 15.677734 C 6.6235235 15.733111 6.4062808 15.765527 6.0898438 15.773438 L 6.0898438 15.998047 L 9.1152344 15.998047 L 9.1152344 15.773438 C 8.8462628 15.757616 8.6500124 15.69093 8.5234375 15.572266 C 8.3968627 15.453602 8.2367373 15.175335 8.046875 14.740234 L 7.2851562 13 L 2.7382812 13 z M 10.408203 13 L 10.408203 14.705078 C 10.408203 15.132268 10.35294 15.404774 10.242188 15.523438 C 10.131435 15.6421 9.8551213 15.725972 9.4121094 15.773438 L 9.4121094 15.998047 L 12.544922 15.998047 C 12.813893 15.998047 13.074975 15.982816 13.328125 15.951172 C 13.589186 15.919528 13.865499 15.852842 14.158203 15.75 C 14.450908 15.647158 14.700566 15.51564 14.90625 15.357422 C 15.119845 15.199203 15.297056 14.981961 15.439453 14.705078 C 15.58185 14.420285 15.654297 14.096325 15.654297 13.732422 C 15.654297 13.510916 15.629497 13.301289 15.582031 13.103516 C 15.574223 13.069681 15.557268 13.034255 15.546875 13 L 14.259766 13 C 14.322024 13.199478 14.359375 13.416981 14.359375 13.662109 C 14.359375 14.927858 13.579937 15.560547 12.021484 15.560547 C 11.863266 15.560547 11.756548 15.531939 11.701172 15.476562 C 11.645795 15.421187 11.619141 15.314469 11.619141 15.15625 L 11.619141 13 L 10.408203 13 z M 17.388672 13 L 17.388672 14.705078 C 17.388672 15.14809 17.320033 15.433972 17.185547 15.560547 C 17.051061 15.687122 16.738524 15.757616 16.248047 15.773438 L 16.248047 15.998047 L 20.212891 15.998047 C 20.758745 15.998047 21.229454 15.931361 21.625 15.796875 C 22.020546 15.654478 22.315899 15.473459 22.513672 15.251953 C 22.719356 15.022536 22.866105 14.791917 22.953125 14.5625 C 23.040145 14.333083 23.083984 14.100609 23.083984 13.863281 C 23.083984 13.570577 23.024914 13.309495 22.90625 13.080078 C 22.891131 13.049839 22.874783 13.02847 22.859375 13 L 21.492188 13 C 21.503763 13.020487 21.518211 13.035208 21.529297 13.056641 C 21.655871 13.278147 21.71875 13.550652 21.71875 13.875 C 21.71875 14.21517 21.655871 14.499099 21.529297 14.728516 C 21.410633 14.957933 21.23723 15.133289 21.007812 15.251953 C 20.778397 15.362706 20.532545 15.440816 20.271484 15.488281 C 20.010425 15.535747 19.701695 15.560547 19.345703 15.560547 C 19.052999 15.560547 18.854795 15.528131 18.751953 15.464844 C 18.649111 15.393645 18.597656 15.264081 18.597656 15.074219 L 18.597656 13 L 17.388672 13 z "
       transform="matrix(5.8181818,0,0,5.8181818,-5.8181818,-5.8181818)"
       id="path831" />
    <path
       d="m54.892799 3.2812959v-2.79470843z"
       fill="#fff"
       fill-opacity=".756881"
       id="path12" />
    <rect
       height="5.8181801"
       rx="1.78422"
       ry="1.1475101"
       width="128"
       x="0"
       y="58.18182"
       id="rect14"
       style="fill:#010101;stroke-width:0.70710701" />
  </g>
</svg>
